X:1
T:Alas! and Did My Savior Bleed?
T:Alas! and Did My Savior Bleed?
T:James Banks
T:Isaac Watts
T:by Mutopia-2006/09/07-813 - Public Domain
T:by Mutopia-2006/09/07-813 - Public Domain
T:by Mutopia-2006/09/07-813 - Public Domain
C:James Banks
Z:Isaac Watts
Z:by Mutopia-2006/09/07-813 - Public Domain
%%score [ ( 1 2 ) ( 3 4 ) ]
L:1/8
Q:1/4=120
M:3/4
K:Bb
V:1 treble nm="S\nA"
V:2 treble 
V:3 bass nm="T\nB"
V:4 bass 
V:1
 B2 | A4 F2 | G4 A2 | (B2 A2) B2 | d4 A2 | B2 c4 | c4 e2 | d6- | d4 A2 | B4 F2 | G4 G2 | G4 F2 | %12
w: A\-|las! and|did my|Sav _ ior|bleed? And|did my|Sov'\- reign|die?|* Would|He de\-|vote that|sa\- cred|
w: Well|might the|sun in|dark\- * ness|hide, And|shut his|glo. ries|in,|* When|Christ, the|migh\- ty|Mak\- er,|
 G4 A2 | B4 A2 | G4 F2 | G6- | G2 z2 A2 | A4 (AB) | (c2 d2) e2 | (B2 A2) B2 | d4 G2 | (G2 A2) G2 | %22
w: head For|such a|worm as|I?|* Was|it for _|cri\- mes that|I _ have|done He|groan\- ed u\-|
w: died For|man, the|crea\- ture's|sin.|* Thus|might I _|hide _ my|blu\- _ shing|face While|His _ dear|
 F4 C2 | (D6 | F4) G2 | (F2 G2) A2 | B4 B2 | e4 c2 | d4 B2 | d4 d2 | d4 d2 | d6- | d4 :| %33
w: pon the|tree?|* A\-|maz\- _ ing|pi\- ty!|grace un\-|know! And|love be\-|yond de\-|gree!||
w: cross a\-|ppears;|* Di\-|ssolve * my|heart in|Thank\- ful\-|ness and|melt mine|eyes to|tears.||
[Q:1/4=60] ^F2 | ^F4 (FG) | A4 A2 | B2 A2 G2 | ^F4 =E2 | E4 E2 | G4 E2 | D6- | D4 ^F2 | ^F3 G(FG) | %43
w: But|drops of _|grief can|ne\- ver re\-|pay The|debt of|love I|owe:|* Here,|Lord, _ I *|
w: ||||||||||
 A4 A2 | d4 B2 | A4 A2 | c4 c2 | B4 (AG) | A6- | [DA]4 A2 | G4 F2 | F2 G4 | !fermata!=E6 | %53
w: give my\-|self a\-|way, 'Tis|all that|I can *|do!|_ 'Tis|all that|I can|do.|
w: ||||||||||
 !fermata!^F6 |] %54
w: |
w: |
V:2
 G2 | G2 F4 | G4 F2 | B2- B2 G2 | F4 (FG) | E2 E4 | G4 G2 | F6- | F4 F2 | G4 F2 | G4 D2 | E4 C2 | %12
 D4 G2 | G2 G4 | D4 E2 | B,6- | B,2 z2 A2 | G4 A2 | (A2 F2) G2 | (G2 F2) E2 | F4 E2 | (G2 A2) G2 | %22
 F4 C2 | (D6 | C4) C2 | (C2 E2) E2 | D2 G4 | (C2 D2) C2 | D4 d2 | G2 D4 | E4 D2 | G,6- | G,4 :| %33
 D2 | D4 D2 | D2 C4 | D2 D2 D2 | D4 D2 | C4 C2 | B,2 A,4 | D6- | D4 D2 | D2 C2- C2 | A,4 D2 | %44
 F4 F2 | F4 ^F2 | =E4 E2 | E4 =E2 | D6- | x4 D2 | C4 C2 | F4 =E2 | D6 | D6 |] %54
V:3
 D2 | D2 C4 | B,4 A,2 | (G,2 A,2) B,2 | D4 D2 | E4 E2 | D4 B,2 | (D6 | C4) (B,A,) | G,2 A,4 | %10
 B,4 B,2 | C2 D2 C2 | B,4 A,2 | B,2 C4 | D,4 F,2 | G,6- | G,2 z2 D2 | D4 F2 | F4 E2 | D4 D2 | %20
 D4 E2 | D4 A,2 | G,2 G,4 | G,6- | G,4 A,2 | (A,2 D2) C2 | D2 B,4 | (A,2 B,2) C2 | D4 F2 | E4 D2 | %30
 C4 B,2 | G,6- | G,4 :| A,2 | A,4 A,2 | A,2 A,4 | A,2 A,2 [D,A,]2 | A,4 A,2 | A,4 A,2 | G,4 G,2 | %40
 ^F,6- | F,4 A,2 | A,4 (A,G,) | A,4 A,2 | B,4 B,2 | A,4 A,2 | G,4 G,2 | B,4 (CB,) | (B,2 A,4 | %49
 ^F,4) D,2 | E,2 G,4 | A,4 A,2 | (B,6 | A,6) |] %54
V:4
 G,,2 | G,4 F,2 | E,4 F,2 | E,2 E,4 | F,4 C,2 | (D,2 C,2) A,,2 | B,,2 C,2 D,2 | (A,6 | D,4) F,,2 | %9
 G,,4 A,,2 | B,,4 C,2 | C,2 A,4 | G,4 F,2 | E,4 B,2 | D,4 F,2 | G,,6- | G,,2 z2 F,,2 | F,4 E,D, | %18
 (C,2 D,2) E,2 | (D,2 C,2) B,,2 | B,,4 G,2 | E,2 F,4 | D,2 E,4 | (D,6 | A,,4) C,2 | %25
 (C,2 B,,2) A,,2 | G,,4 G,2 | F,2 E,2 D,2 | B,,4 B,2 | (B,2 G,2) B,2 | F,4 F,2 | G,6 | G,4 :| D,2 | %34
 D,4 D,2 | D,4 D,2 | D,2 D,2 x2 | D,4 D,2 | D,4 D,2 | D,4 D,2 | (D,6 | A,,4) D,2 | D,4 D,2 | %43
 D,4 D,2 | B,,4 C,2 | F,4 D,2 | C,4 G,,2 | G,,2 A,,4 | B,,4 C,2 | D,4 D,2 | C,4 C,2 | D,4 E,2 | %52
 (G,6 | D,6) |] %54

